static/img/kroki/f97e9370e1c78bce87be844b4f99dff0.svg

<?xml version="1.0" encoding="us-ascii" standalone="no"?><svg xmlns="http://www.w3.org/2000/svg" xmlns:xlink="http://www.w3.org/1999/xlink" contentStyleType="text/css" height="374px" preserveAspectRatio="none" style="width:298px;height:374px;" version="1.1" viewBox="0 0 298 374" width="298px" zoomAndPan="magnify"><defs/><g><!--class aws_resource--><g id="elem_aws_resource"><rect codeLine="23" fill="#3D176E" height="39.7891" id="aws_resource" rx="2.5" ry="2.5" style="stroke:#000D19;stroke-width:0.5;" width="155" x="7" y="167.79"/><ellipse cx="22" cy="187.6845" fill="#ADD1B2" rx="11" ry="11" style="stroke:#181818;stroke-width:1.0;"/><path d="M24.9688,193.3252 Q24.3906,193.622 23.75,193.7627 Q23.1094,193.9189 22.4063,193.9189 Q19.9063,193.9189 18.5781,192.2783 Q17.2656,190.622 17.2656,187.497 Q17.2656,184.372 18.5781,182.7158 Q19.9063,181.0595 22.4063,181.0595 Q23.1094,181.0595 23.75,181.2158 Q24.4063,181.372 24.9688,181.6689 L24.9688,184.3877 Q24.3438,183.8095 23.75,183.5439 Q23.1563,183.2627 22.5313,183.2627 Q21.1875,183.2627 20.5,184.3408 Q19.8125,185.4033 19.8125,187.497 Q19.8125,189.5908 20.5,190.6689 Q21.1875,191.7314 22.5313,191.7314 Q23.1563,191.7314 23.75,191.4658 Q24.3438,191.1845 24.9688,190.6064 L24.9688,193.3252 Z " fill="#000000"/><text fill="#D9B8FF" font-family="Helvetica" font-size="17" lengthAdjust="spacing" textLength="113" x="41" y="193.5698">aws_resource</text></g><!--class aws_sqs_queue--><g id="elem_aws_sqs_queue"><rect codeLine="26" fill="#3D176E" height="39.7891" id="aws_sqs_queue" rx="2.5" ry="2.5" style="stroke:#000D19;stroke-width:0.5;" width="171" x="78" y="328.58"/><ellipse cx="93" cy="348.4745" fill="#ADD1B2" rx="11" ry="11" style="stroke:#181818;stroke-width:1.0;"/><path d="M95.9688,354.1152 Q95.3906,354.412 94.75,354.5527 Q94.1094,354.7089 93.4063,354.7089 Q90.9063,354.7089 89.5781,353.0683 Q88.2656,351.412 88.2656,348.287 Q88.2656,345.162 89.5781,343.5058 Q90.9063,341.8495 93.4063,341.8495 Q94.1094,341.8495 94.75,342.0058 Q95.4063,342.162 95.9688,342.4589 L95.9688,345.1777 Q95.3438,344.5995 94.75,344.3339 Q94.1563,344.0527 93.5313,344.0527 Q92.1875,344.0527 91.5,345.1308 Q90.8125,346.1933 90.8125,348.287 Q90.8125,350.3808 91.5,351.4589 Q92.1875,352.5214 93.5313,352.5214 Q94.1563,352.5214 94.75,352.2558 Q95.3438,351.9745 95.9688,351.3964 L95.9688,354.1152 Z " fill="#000000"/><text fill="#D9B8FF" font-family="Helvetica" font-size="17" lengthAdjust="spacing" textLength="129" x="112" y="354.3598">aws_sqs_queue</text></g><!--class queue--><g id="elem_queue"><rect codeLine="29" fill="#3D176E" height="39.7891" id="queue" rx="2.5" ry="2.5" style="stroke:#000D19;stroke-width:0.5;" width="94" x="197.5" y="167.79"/><ellipse cx="212.5" cy="187.6845" fill="#ADD1B2" rx="11" ry="11" style="stroke:#181818;stroke-width:1.0;"/><path d="M215.4688,193.3252 Q214.8906,193.622 214.25,193.7627 Q213.6094,193.9189 212.9063,193.9189 Q210.4063,193.9189 209.0781,192.2783 Q207.7656,190.622 207.7656,187.497 Q207.7656,184.372 209.0781,182.7158 Q210.4063,181.0595 212.9063,181.0595 Q213.6094,181.0595 214.25,181.2158 Q214.9063,181.372 215.4688,181.6689 L215.4688,184.3877 Q214.8438,183.8095 214.25,183.5439 Q213.6563,183.2627 213.0313,183.2627 Q211.6875,183.2627 211,184.3408 Q210.3125,185.4033 210.3125,187.497 Q210.3125,189.5908 211,190.6689 Q211.6875,191.7314 213.0313,191.7314 Q213.6563,191.7314 214.25,191.4658 Q214.8438,191.1845 215.4688,190.6064 L215.4688,193.3252 Z " fill="#000000"/><text fill="#D9B8FF" font-family="Helvetica" font-size="17" lengthAdjust="spacing" textLength="52" x="231.5" y="193.5698">queue</text></g><!--class resource--><g id="elem_resource"><rect codeLine="32" fill="#3D176E" height="39.7891" id="resource" rx="2.5" ry="2.5" style="stroke:#000D19;stroke-width:0.5;" width="113" x="107" y="7"/><ellipse cx="122" cy="26.8945" fill="#ADD1B2" rx="11" ry="11" style="stroke:#181818;stroke-width:1.0;"/><path d="M124.9688,32.5352 Q124.3906,32.832 123.75,32.9727 Q123.1094,33.1289 122.4063,33.1289 Q119.9063,33.1289 118.5781,31.4883 Q117.2656,29.832 117.2656,26.707 Q117.2656,23.582 118.5781,21.9258 Q119.9063,20.2695 122.4063,20.2695 Q123.1094,20.2695 123.75,20.4258 Q124.4063,20.582 124.9688,20.8789 L124.9688,23.5977 Q124.3438,23.0195 123.75,22.7539 Q123.1563,22.4727 122.5313,22.4727 Q121.1875,22.4727 120.5,23.5508 Q119.8125,24.6133 119.8125,26.707 Q119.8125,28.8008 120.5,29.8789 Q121.1875,30.9414 122.5313,30.9414 Q123.1563,30.9414 123.75,30.6758 Q124.3438,30.3945 124.9688,29.8164 L124.9688,32.5352 Z " fill="#000000"/><text fill="#D9B8FF" font-family="Helvetica" font-size="17" lengthAdjust="spacing" textLength="71" x="141" y="32.7798">resource</text></g><!--reverse link resource to aws_resource--><g id="link_resource_aws_resource"><path codeLine="35" d="M145.954,63.1666 C130.774,93.6866 109.27,136.9 94.06,167.46 " fill="none" id="resource-backto-aws_resource" style="stroke:#FFAF37;stroke-width:2.0;"/><polygon fill="none" points="153.97,47.05,140.5818,60.4945,151.3262,65.8386,153.97,47.05" style="stroke:#FFAF37;stroke-width:2.0;"/></g><!--reverse link aws_resource to aws_sqs_queue--><g id="link_aws_resource_aws_sqs_queue"><path codeLine="36" d="M102.046,223.9566 C117.226,254.4766 138.73,297.69 153.94,328.25 " fill="none" id="aws_resource-backto-aws_sqs_queue" style="stroke:#FFAF37;stroke-width:2.0;"/><polygon fill="none" points="94.03,207.84,96.6738,226.6286,107.4182,221.2845,94.03,207.84" style="stroke:#FFAF37;stroke-width:2.0;"/></g><!--reverse link queue to aws_sqs_queue--><g id="link_queue_aws_sqs_queue"><path codeLine="37" d="M226.5501,223.874 C210.9801,254.394 188.9,297.69 173.31,328.25 " fill="none" id="queue-backto-aws_sqs_queue" style="stroke:#FFAF37;stroke-width:2.0;"/><polygon fill="none" points="234.73,207.84,221.2055,221.1474,231.8948,226.6006,234.73,207.84" style="stroke:#FFAF37;stroke-width:2.0;"/></g><!--reverse link resource to queue--><g id="link_resource_queue"><path codeLine="38" d="M181.4499,63.084 C197.0199,93.604 219.1,136.9 234.69,167.46 " fill="none" id="resource-backto-queue" style="stroke:#FFAF37;stroke-width:2.0;"/><polygon fill="none" points="173.27,47.05,176.1052,65.8106,186.7945,60.3574,173.27,47.05" style="stroke:#FFAF37;stroke-width:2.0;"/></g><!--SRC=[XP1BRuCm48Jl_0fBEID1evOWzP8YLUqbgfhU8uFNmG9iickAqiT_RrDQQY2FesS-xynkhWGmg6gxPnLKAI1vL2XTS-GLMoAQDZ6bGJQJaijvD3RlZRONWHMlW3r0-GfMPNnClEGgApGGiIl7kkDPiKNJQD6DjyWrVLkWhKCb9ITQMeigRImuPKISBgGSa-EXixa8enkOO0O5u2yI1848up5oCUhitZsnLc_0GlTeAsDXKdCIyKETRNaWd9AJHV_yansVk11ARzcreprtdL033lHrpeLf3xJa9RanP071s7qDoMGhY1T2HaVXnrEmbnrEntXB6mGo3MR0tZtlqz5fHvjT0yt0c0Z3t_thziFt_S5uRv3rx_SnNZVxc3FwrebV]--></g></svg>

<svg xmlns="http://www.w3.org/2000/svg" width="298" height="374" viewBox="0 0 298 374"><rect width="155" height="39.789" x="7" y="167.79" fill="#3D176E" rx="2.5" ry="2.5" style="stroke:#000d19;stroke-width:.5"/><circle cx="22" cy="187.685" r="11" fill="#ADD1B2" style="stroke:#181818;stroke-width:1"/><path d="M24.969 193.325q-.578.297-1.219.438-.64.156-1.344.156-2.5 0-3.828-1.64-1.312-1.657-1.312-4.782t1.312-4.781q1.328-1.656 3.828-1.656.703 0 1.344.156.656.156 1.219.453v2.719q-.625-.578-1.219-.844-.594-.281-1.219-.281-1.343 0-2.031 1.078-.687 1.062-.687 3.156t.687 3.172q.688 1.062 2.031 1.062.625 0 1.219-.265.594-.281 1.219-.86z"/><text x="41" y="193.57" fill="#D9B8FF" font-family="Helvetica" font-size="17" textLength="113">aws_resource</text><rect width="171" height="39.789" x="78" y="328.58" fill="#3D176E" rx="2.5" ry="2.5" style="stroke:#000d19;stroke-width:.5"/><circle cx="93" cy="348.474" r="11" fill="#ADD1B2" style="stroke:#181818;stroke-width:1"/><path d="M95.969 354.115q-.578.297-1.219.438-.64.156-1.344.156-2.5 0-3.828-1.64-1.312-1.657-1.312-4.782t1.312-4.781q1.328-1.656 3.828-1.656.703 0 1.344.156.656.156 1.219.453v2.719q-.625-.579-1.219-.844-.594-.281-1.219-.281-1.344 0-2.031 1.078-.687 1.062-.687 3.156t.687 3.172q.688 1.062 2.031 1.062.625 0 1.219-.265.594-.281 1.219-.86z"/><text x="112" y="354.36" fill="#D9B8FF" font-family="Helvetica" font-size="17" textLength="129">aws_sqs_queue</text><rect width="94" height="39.789" x="197.5" y="167.79" fill="#3D176E" rx="2.5" ry="2.5" style="stroke:#000d19;stroke-width:.5"/><circle cx="212.5" cy="187.685" r="11" fill="#ADD1B2" style="stroke:#181818;stroke-width:1"/><path d="M215.469 193.325q-.578.297-1.219.438-.64.156-1.344.156-2.5 0-3.828-1.64-1.312-1.657-1.312-4.782t1.312-4.781q1.328-1.656 3.828-1.656.703 0 1.344.156.656.156 1.219.453v2.719q-.625-.578-1.219-.844-.594-.281-1.219-.281-1.344 0-2.031 1.078-.687 1.062-.687 3.156t.687 3.172q.688 1.062 2.031 1.062.625 0 1.219-.265.594-.281 1.219-.86z"/><text x="231.5" y="193.57" fill="#D9B8FF" font-family="Helvetica" font-size="17" textLength="52">queue</text><rect width="113" height="39.789" x="107" y="7" fill="#3D176E" rx="2.5" ry="2.5" style="stroke:#000d19;stroke-width:.5"/><circle cx="122" cy="26.895" r="11" fill="#ADD1B2" style="stroke:#181818;stroke-width:1"/><path d="M124.969 32.535q-.578.297-1.219.438-.64.156-1.344.156-2.5 0-3.828-1.64-1.312-1.657-1.312-4.782t1.312-4.781q1.328-1.656 3.828-1.656.703 0 1.344.156.656.156 1.219.453v2.719q-.625-.578-1.219-.844-.594-.281-1.219-.281-1.344 0-2.031 1.078-.687 1.062-.687 3.156t.687 3.172q.688 1.062 2.031 1.062.625 0 1.219-.265.594-.281 1.219-.86z"/><text x="141" y="32.78" fill="#D9B8FF" font-family="Helvetica" font-size="17" textLength="71">resource</text><g fill="none"><path d="M145.954 63.167A500389 500389 0 0 1 94.06 167.46" style="stroke:#ffaf37;stroke-width:2"/><path d="m153.97 47.05-13.388 13.445 10.744 5.344z" style="stroke:#ffaf37;stroke-width:2"/></g><g fill="none"><path d="M102.046 223.957c15.18 30.52 36.684 73.733 51.894 104.293" style="stroke:#ffaf37;stroke-width:2"/><path d="m94.03 207.84 2.644 18.789 10.744-5.344z" style="stroke:#ffaf37;stroke-width:2"/></g><path fill="none" d="M226.55 223.874c-15.57 30.52-37.65 73.816-53.24 104.376m61.42-120.41-13.524 13.307 10.689 5.454zM181.45 63.084c15.57 30.52 37.65 73.816 53.24 104.376M173.27 47.05l2.835 18.76 10.69-5.453z" style="stroke:#ffaf37;stroke-width:2"/></svg>
